!!!!SEGMENT: pl-kozmzk--mzk-m-280--001_gizycka-zamoyska-ludmila--trois-improvisations-profond-soupir.krn
!!!cenid: 18xx:3048
!!!COM: Giżycka-Zamoyska, Ludmiła
!!!COM-rismid: pe30110123
!!!CDT:
!!!CNT:
!!!GTL: Trois Improvisations
!!!OTL: Profond soupir
!!!PDT:
!!!AGN: Secular; Improvization
!!!SMS-siglum: PL-KOZmzk
!!!SMS-shelfmark: mzk/m/280
!!!SMS-shelfwork: 001 G
!!!SMS-variant:
!!!SMS-altvar:
!!!NIFC-rismid: 1001099002
!!!URL-scan: https://repozytorium.nifc.pl/islandora/object/pl-kozmzk%3A5612/datastream/PDF/view
!!!ONB-nifc:
!!!OMD: Moderato.
**kern	**kern	**dynam	**kern	**text	**dynam
*part2	*part2	*part2	*part1	*part1	*part1
*staff3	*staff2	*	*staff1	*staff1	*
*Ipiano	*Ipiano	*	*Iempty	*	*
*I"Piano.	*I"Piano.	*	*I"Chant.	*	*
*clefF4	*clefG2	*	*clefG2	*	*
*k[f#c#]	*k[f#c#]	*	*k[f#c#]	*	*
*D:	*D:	*	*D:	*	*
*M6/8	*M6/8	*	*M6/8	*	*
=1	=1	=1	=1	=1	=1
*^	*	*	*	*	*
!	!	!	!LO:DY:rj	!LO:TX:a:B:t=Profond soupir.	!	!
4Fn 4AA\	2.DD\	4a 4d 4A</	ff	2.r	.	.
8F\	.	8a 8d 8A</	.	.	.	.
4F\	.	4a 4d 4A</	.	.	.	.
8F\	.	8a 8d 8A</	.	.	.	.
=2	=2	=2	=2	=2	=2	=2
4Fn\	2.DD\	4a 4d 4A</	.	4r	.	.
8F\	.	8a 8d 8A</	.	8r	.	.
4F\	.	4a 4d 4A</	.	8r	.	.
.	.	.	.	8r	.	.
8F\	.	8a 8d 8A</	.	8d/	Ah!	f
=3	=3	=3	=3	=3	=3	=3
4Fn\	4.DD\	4a 4d 4A</	.	8.a/	pau-	.
.	.	.	.	16b/	-vre	.
8F\	.	8a 8d 8A</	.	8a/	Her-	.
4E\	4ryy	4g 4c#< 4A</	.	8.g/	-cule	.
.	.	.	.	16a/	et	.
8E\	8ryy	8g 8c#< 8A</	.	8g/	Thé-	.
*v	*v	*	*	*	*	*
=4	=4	=4	=4	=4	=4
4D\	4fn 4d 4A</	.	4.fn/	-sée!	.
8D\	8f 8d 8A</	.	.	.	.
4Cn\	4e-X 4A< 4Fn</	.	4.e-X/	Vous	.
8C\	8e- 8A< 8F</	.	.	.	.
!!LO:LB:g=original
=5	=5	=5	=5	=5	=5
*^	*	*	*	*	*
4BB-X\	2.BBB-X\	4d 4B-X< 4Fn</	.	8.d/	ê-	.
.	.	.	.	16en/	-tes	.
8BB-\	.	8d 8B-< 8F</	.	8fn/	per-	.
4BB-\	.	4d 4A-X< 4F</	.	8.f/	-dus	.
.	.	.	.	16e/	pour	.
8BB-\	.	8d 8A-< 8F</	.	8d/	le	.
=6	=6	=6	=6	=6	=6	=6
4AA\	2.AAA\	4c# 4An< 4E</	.	4e/	coup!	.
8AA\	.	8c# 8A< 8E</	.	8r	.	.
4AA\	.	4e 4c# 4G</	p	4r	.	.
8AA\	.	8e 8c# 8G</	.	8e/	car	p
=7	=7	=7	=7	=7	=7	=7
4BB\	2.BBB\	4f# 4d#X 4A</	.	8.f#/	la	.
.	.	.	.	16g/	plus	.
8BB\	.	8f# 8d# 8A</	.	8a/	gen-	.
4BB\	.	4f# 4d# 4A</	<	8.a/	-til-	<
.	.	.	.	16g/	-le	.
8BB\	.	8f# 8d# 8A</	[[	8f#/	des	[[
=8	=8	=8	=8	=8	=8	=8
4BB/	2.EE\	4g 4e 4B/	.	4.b\	fées	.
8BB/	.	8g 8e 8B/	.	.	.	.
4C#X/	.	4g 4e 4A#X/	.	4r	.	.
8C#/	.	8g 8e 8A#/	.	8a#X/	est	.
!!LO:LB:g=original
=9	=9	=9	=9	=9	=9	=9
4G/	4.AA\	4g 4c# 4An/	.	8.an/	plus	<
.	.	.	.	16b\	re-	.
8G/	.	8g 8c# 8A/	.	8cc#\	-dou-	.
4G/	4.GG\	4g 4c# 4A/	.	8.cc#\	-ta-	.
.	.	.	.	16b\	-ble	.
8G/	.	8g 8c# 8A/	.	8a/	que	[[
*v	*v	*	*	*	*	*
=10	=10	=10	=10	=10	=10
4F# 4D 4FF#\	4a 4d 4A</	.	[2.dd\	vous,	f
8F# 8FF#\	8a 8d 8A</	.	.	.	.
4G 4D 4GG\	4b-X 4e 4d 4B-X/	.	.	.	.
8G 8D 8GG\	8b- 8e 8d 8B-/	.	.	.	.
=11	=11	=11	=11	=11	=11
*^	*	*	*	*	*
4F#\	4.AA\	4a 4d 4A</	.	4dd\]	.	.
8F#\	.	8a 8d 8A</	.	8r	.	.
4AA/	4.AAA\	4e 4c# 4G</	p	4.a/	que	p
8AA/	.	8e 8c# 8G</	.	.	.	.
=12	=12	=12	=12	=12	=12	=12
4AA/	4.DD\	4d 4A< 4F#</	.	4d/	vous!	.
8AA/	.	8d 8A< 8F#</	.	8r	.	.
4AA/	4ryy	4d 4A< 4F#</	.	4r	.	.
8AAA^^>/	8AAA\	8d 8A< 8F#</	f	8r	.	.
=13	=13	=13	=13	=13	=13	=13
4BBB-X/	4.BBB-^^\	4d 4B-X< 4Fn</	.	4r	.	.
8BB-X\	.	8d 8B-< 8F</	.	8r	.	.
4BB-^^<\	4ryy	4d 4B-< 4F</	.	4.d/	Quand	f
8BB-\	8ryy	8d 8B-< 8F</	.	.	.	.
*v	*v	*	*	*	*	*
!!LO:LB:g=original
=14	=14	=14	=14	=14	=14
4.BBB-X\	4e-X 4A< 4Fn</	p	8e-X/	vous	f
.	.	.	8fn/	ter-	.
.	8e- 8A< 8F</	.	8g/	-ras-	.
4.BB-X\	4e- 4A< 4F</	.	8a/	-siez	.
.	.	.	8.b-X\	vò-	.
.	8e- 8A< 8F</	.	.	.	.
.	.	.	16ccn\	-tre	.
=15	=15	=15	=15	=15	=15
4.BBB-X\	4d 4B-X< 4Fn</	.	4.dd\	mon-	.
.	8d 8B-< 8F</	.	.	.	.
4.BB-X\	4d 4B-< 4F</	.	4b-X\	-de,	.
.	8d 8B-< 8F</	.	8g/	c'é-	.
=16	=16	=16	=16	=16	=16
4.BB-X 4.BBB-X\	4d 4B-X< 4Fn</	.	8.fn/	-tait	.
.	.	.	16en/	par	.
.	8d 8B-< 8F</	.	8d/	la	.
4.BB-\	4d 4A-X< 4F</	.	8.f/	for-	.
.	.	.	16e/	-ce,	.
.	8d 8A-< 8F</	.	8d/	les	.
=17	=17	=17	=17	=17	=17
4.AA 4.AAA\	4c#X 4An< 4E</	.	4.a/	ar-	.
.	8c# 8A< 8E</	.	.	.	.
4.AA\	4e 4c# 4G</	.	4e/	-mes',	.
!	!	!	!LO:TX:a:i:t=dolce	!	!
.	8e 8c# 8G</	.	8e#X/	la	.
!!LO:PB:g=original
=18	=18	=18	=18	=18	=18
4.BBn 4.BBBn\	4f# 4d#X 4A</	.	8f#X/	fée,	.
.	.	.	8e#X/	au	.
.	8f# 8d# 8A</	.	8f#/	con-	.
4.BBn\	4f# 4d# 4A</	.	8.ccn\	-trai-	.
.	.	.	16b\	-re,	.
.	8f# 8d# 8A</	.	8f#/	in-	.
=19	=19	=19	=19	=19	=19
*^	*	*	*	*	*
4.BB/	2.EE\	4g 4e 4B/	.	4.an/	-on-	.
.	.	8g 8e 8B/	.	.	.	.
4.D/	.	4g 4e 4B-X/	.	4g/	-de	.
.	.	8g 8e 8B-/	.	8f#/	l'es-	.
*v	*v	*	*	*	*	*
=20	=20	=20	=20	=20	=20
4.EE 4.EEE\	4e 4d 4G#X</	.	8e/	-prit	.
.	.	.	8d#X/	et	.
.	8e 8d 8G#</	<	8e/	le	<
4.D 4.EE\	4e 4d 4G#</	.	8.g#X/	ceour	.
.	.	.	16f#/	de	.
.	8e 8d 8G#</	[	8e/	son	[
=21	=21	=21	=21	=21	=21
4.Gn 4.AA/	4gn 4c# 4A/	>	4.b/	char-	>
.	8g 8c# 8A/	.	.	.	.
4.AAA/	4g 4c# 4A/	]	8a/	-me,	]
.	.	.	8r	.	.
.	8g 8c# 8A/	pp	8e/	son	pp
!!LO:LB:g=original
=22	=22	=22	=22	=22	=22
4.D 4.DD/	4f# 4d 4A/	.	8.f#/	doux	.
.	.	.	16e/	et	.
.	8f# 8d 8A/	.	8d/	es-	.
4.E 4.EE/	4g 4c# 4A/	.	8.g/	-piè-	.
.	.	.	16f#/	-gle	.
.	8g 8c# 8A/	.	8e/	sou-	.
=23	=23	=23	=23	=23	=23
2.BB 2.BBB/	4f# 4d#X 4A/	.	4.a/	-ri-	.
.	8f# 8d# 8A/	.	.	.	.
.	4f# 4d# 4A/	.	4d#X/	-re	.
.	8f# 8d# 8A/	.	8f#/	vous	.
=24	=24	=24	=24	=24	=24
4.E 4.EE/	4g 4e 4B/	.	8e/	sub-	.
.	.	.	8f#/	-ju-	.
.	8g 8e 8B/	.	8g/	-gue-	.
4.F# 4.FF#/	4a 4d#X 4B/	.	8a/	-rait,	.
.	.	.	8.g/	mes	.
.	8a 8d# 8B/	.	.	.	.
.	.	.	16f#/	a	.
!!LO:LB:g=original
=25	=25	=25	=25	=25	=25
2.G 2.GG\	4g 4e 4B/	.	4b\	mis,	.
.	8g 8e 8B/	.	8r	.	.
.	4g 4e 4B/	.	4r	.	.
.	8g 8e 8B-X/	.	8b-X\	en-	.
=26	=26	=26	=26	=26	=26
*^	*	*	*	*	*
4G/	4.AA\	4g 4c# 4A/	<	8.a/	-core	<
.	.	.	.	16g#X/	un	.
8G/	.	8g 8c# 8A/	.	8a/	lim-	.
4G/	4.GG\	4g 4c# 4A/	.	8cc#\	-pi-	.
.	.	.	.	8.b\	-de	.
8G/	.	8g 8c# 8A/	[	.	.	.
.	.	.	.	16a/	re-	[[
*v	*v	*	*	*	*	*
=27	=27	=27	=27	=27	=27
4F# 4FF#/	4a 4d 4A/	.	[4.dd;\	-gard,	.
8F# 8FF#/	8a 8d 8A/	.	.	.	.
4G: 4D: 4GG:/	4b-X 4e 4d 4B-X/	.	4dd\]	.	.
8GGG/	8b- 8e 8d 8B-/	p	8b-X\	et,	p
=28	=28	=28	=28	=28	=28
*^	*	*	*	*	*
4AA/	4.AAA\	4f# 4d 4A/	.	8a/	croy-	<
.	.	.	.	8g/	-ez-	.
8AA/	.	8f# 8d 8A/	.	8f#/	-moi,	.
4BB-X/	4.BBB-X\	4e 4c# 4G/	.	8e/	tout	[
.	.	.	.	8.f#/	est	>
8BB-/	.	8e 8c# 8G/	.	.	.	.
.	.	.	.	16g/	fi-	]]
!!LO:LB:g=original
=29	=29	=29	=29	=29	=29	=29
4BBn\	2.BBBn\	4d 4Bn< 4F#</	.	4f#/	-ni.	.
8BB\	.	8d 8B< 8F#</	.	8r	.	.
4BB\	.	4d 4B< 4F#</	.	4r	.	.
8BB\	.	8d 8B< 8F#</	.	8r	.	.
*v	*v	*	*	*	*	*
=30	=30	=30	=30	=30	=30
4.GG 4.GGG/	8.b-XL 8.e 8.d 8.B-X/	.	4.b-X/	tout	f
.	16cc#K 16c#/	.	.	.	.
.	8b-J 8B-/	.	.	.	.
4G 4AA\	8.aL 8.e 8.c#/	<	4a/	est	<
.	16bnK 16Bn/	.	.	.	.
8AA 8AAA/	8cc#J 8c#/	[	8a/	fi-	[[
=31	=31	=31	=31	=31	=31
4DD 4DDD/	4dd 4f# 4d/	.	4dd\	-ni!	.
8r	8r	.	8r	.	.
4r	4r	.	4r	.	.
8r	8r	.	8r	.	.
=32	=32	=32	=32	=32	=32
*ped	*	*	*	*	*
!	!LO:TX:t=P:problem:mixed beam	!LO:HP:b=2	!	!	!
.	(>8qqDD</L	<	.	.	.
.	8qqGG</	.	.	.	.
.	8qqD</	.	.	.	.
.	8qqG</	.	.	.	.
.	8qqB-X</	.	.	.	.
.	8qqd\	.	.	.	.
.	8qqg\	.	.	.	.
.	8qqb-X\J	.	.	.	.
*Xped	*	*	*	*	*
2.ryy	2.ddd: 2.bb-X: 2.gg: 2.dd:\)	[[	2.r	.	.
=33	=33	=33	=33	=33	=33
*ped	*	*	*	*	*
!	!LO:TX:t=P:problem:mixed beam	!LO:HP:b=2	!	!	!
.	(>8qqDD</L	>	.	.	.
.	8qqAA</	.	.	.	.
.	8qqD</	.	.	.	.
.	8qqF#</	.	.	.	.
.	8qqA</	.	.	.	.
.	8qqd\	.	.	.	.
.	8qqf#\	.	.	.	.
.	8qqa\	.	.	.	.
.	8qqdd\	.	.	.	.
.	8qqff#\	.	.	.	.
.	8qqaa\J	.	.	.	.
*Xped	*8va	*	*	*	*
2.ryy	2.dddd: 2.aaa: 2.fff#: 2.ddd:\)	]]	2.r	.	.
*	*X8va	*	*	*	*
==	==	==	==	==	==
*-	*-	*-	*-	*-	*-
!!!system-decoration: s1{(s2,s3)}
!!!RDF**kern: > = above
!!!RDF**kern: < = below
!!!AIN: 1 empty 1 piano
!!!ENC: Marcin Jachim
!!!END: 2021-09-09
!!!ENC: Marta Lawrence
!!!END: 2021-10-24
